X: 5034
T: Brian O'Lynn
R: jig
M: 6/8
K: Adorian
B|:cAd cAG|EDE GAB|cBc BAG|EAA ~A2B|
cAd cAG|EDE GAB|cde =fed|1 cAA A2B:|2 cAA A2f||
gea ged|cAB cde|eaa age|ed^c def|
geg fed|cAB cde|=fed cAG|1 EAA A2f:|2 EAA A2||

